icon-themes/sifr_svg/cmd/lc_ellipse_unfilled.svg

<svg viewBox="0 0 24 24" xmlns="http://www.w3.org/2000/svg"><path d="m12 3a12 9 0 0 0 -12 9 12 9 0 0 0 12 9 12 9 0 0 0 12-9 12 9 0 0 0 -12-9zm0 2a10 7 0 0 1 10 7 10 7 0 0 1 -10 7 10 7 0 0 1 -10-7 10 7 0 0 1 10-7z" fill="#555753"/></svg>

<svg xmlns="http://www.w3.org/2000/svg" viewBox="0 0 24 24">
  <path
     style="fill:#555753"
     d="M 12,3 A 12,9 0 0 0 0,12 12,9 0 0 0 12,21 12,9 0 0 0 24,12 12,9 0 0 0 12,3 Z m 0,2 A 10,7 0 0 1 22,12 10,7 0 0 1 12,19 10,7 0 0 1 2,12 10,7 0 0 1 12,5 Z"
     />
</svg>
